packages/foundations/assets/icons/functional/images/human/shower_women.svg

<svg xmlns="http://www.w3.org/2000/svg" width="32" height="32" fill="none"><path fill="#1A1C1F" fill-rule="evenodd" d="M23.067 2.111c-.241.125-.352.24-.46.476-.087.189-.098.368-.099 1.581l-.001 1.369-.28.035c-1.034.131-2.136.389-2.874.674-.662.255-.909.615-.822 1.197.039.261.259.561.505.688.32.166.495.155 1.189-.071.366-.119.974-.282 1.353-.362.627-.133.793-.146 1.862-.148 1.438-.004 2.129.106 3.49.558.551.182.732.181 1.071-.009.62-.346.637-1.317.03-1.673-.536-.314-1.91-.675-3.24-.851l-.248-.033-.021-1.371c-.014-.94-.042-1.421-.088-1.531a1.13 1.13 0 0 0-.526-.54c-.228-.098-.643-.092-.841.011m-3.04 8.012c-.357.228-.507.494-.507.896 0 .716.764 1.188 1.413.874.658-.318.744-1.238.159-1.684-.265-.202-.814-.246-1.065-.086m5.986.014c-.384.203-.601.734-.467 1.142.084.253.351.557.571.649.534.223 1.162-.087 1.327-.655.089-.306.067-.474-.104-.785-.234-.427-.865-.594-1.327-.351m-17.106.902c-.594.075-1.019.208-1.627.509-1.034.513-1.782 1.266-2.273 2.292-.36.752-.491 1.326-.491 2.16 0 .866.131 1.419.523 2.213a4.94 4.94 0 0 0 3.217 2.626c.433.115.634.138 1.237.139.496.001.832-.027 1.08-.087 1.738-.429 3.097-1.645 3.649-3.263a4.97 4.97 0 0 0 0-3.256c-.551-1.615-1.997-2.905-3.643-3.247-.486-.101-1.244-.14-1.672-.086m14.274.023a.993.993 0 0 0 .085 1.902c.806.221 1.478-.651 1.102-1.428-.197-.408-.758-.632-1.187-.474m-12.674 2.122c2.068.758 2.65 3.371 1.098 4.922-1.425 1.426-3.81 1.074-4.738-.698-.905-1.731.029-3.836 1.914-4.314.461-.117 1.28-.074 1.726.09m8.56-.082c-.247.131-.354.24-.46.471a.977.977 0 0 0 .363 1.257c.23.147.291.162.588.145.271-.016.367-.049.528-.179.304-.246.404-.47.382-.856-.022-.387-.19-.651-.522-.82-.252-.129-.654-.137-.879-.018m7.901.072a1.01 1.01 0 0 0-.206 1.51c.315.348.965.403 1.325.111.303-.245.403-.469.381-.855-.015-.257-.05-.369-.167-.521a.983.983 0 0 0-1.333-.245m-3.901.937a.99.99 0 0 0-.547 1.009c.086.763 1.003 1.137 1.611.659.299-.235.435-.77.292-1.149-.069-.184-.294-.427-.487-.528-.191-.1-.67-.095-.869.009M18.104 16.1a.983.983 0 0 0-.401 1.487c.509.703 1.579.444 1.786-.432.051-.218-.098-.678-.274-.847-.316-.303-.73-.38-1.111-.208m10.064-.046c-.404.172-.648.521-.648.927 0 .299.073.497.257.69.284.301.619.391 1.015.273.795-.236.942-1.301.245-1.779-.197-.134-.672-.195-.869-.111m-5.101 1.048c-.247.131-.354.24-.46.471a.977.977 0 0 0 .363 1.257c.23.147.291.162.588.145.272-.016.368-.049.533-.181.3-.24.398-.463.376-.854-.021-.387-.189-.651-.521-.82-.252-.129-.654-.137-.879-.018M5.6 23.042c-.63.074-1.298.42-1.684.87-.366.428-.471.748-.953 2.899-.251 1.121-.456 2.111-.456 2.202 0 .411.305.813.707.933.389.116.671.042.988-.258.216-.205.227-.241.73-2.488.22-.983.424-1.84.452-1.904.127-.291.052-.286 4.187-.27l3.813.014.132.133c.113.115.193.409.565 2.08.239 1.071.478 2.046.531 2.166.277.635 1.145.762 1.619.237.212-.234.278-.475.232-.848-.068-.556-.906-4.102-1.033-4.37-.329-.697-1.153-1.284-1.963-1.397-.439-.061-7.348-.061-7.867.001"/></svg>

<svg width="32" height="32" viewBox="0 0 32 32" fill="none" xmlns="http://www.w3.org/2000/svg"><path d="M23.067 2.111 C 22.826 2.236,22.715 2.351,22.607 2.587 C 22.520 2.776,22.509 2.955,22.508 4.168 L 22.507 5.537 22.227 5.572 C 21.193 5.703,20.091 5.961,19.353 6.246 C 18.691 6.501,18.444 6.861,18.531 7.443 C 18.570 7.704,18.790 8.004,19.036 8.131 C 19.356 8.297,19.531 8.286,20.225 8.060 C 20.591 7.941,21.199 7.778,21.578 7.698 C 22.205 7.565,22.371 7.552,23.440 7.550 C 24.878 7.546,25.569 7.656,26.930 8.108 C 27.481 8.290,27.662 8.289,28.001 8.099 C 28.621 7.753,28.638 6.782,28.031 6.426 C 27.495 6.112,26.121 5.751,24.791 5.575 L 24.543 5.542 24.522 4.171 C 24.508 3.231,24.480 2.750,24.434 2.640 C 24.342 2.422,24.115 2.189,23.908 2.100 C 23.680 2.002,23.265 2.008,23.067 2.111 M20.027 10.123 C 19.670 10.351,19.520 10.617,19.520 11.019 C 19.520 11.735,20.284 12.207,20.933 11.893 C 21.591 11.575,21.677 10.655,21.092 10.209 C 20.827 10.007,20.278 9.963,20.027 10.123 M26.013 10.137 C 25.629 10.340,25.412 10.871,25.546 11.279 C 25.630 11.532,25.897 11.836,26.117 11.928 C 26.651 12.151,27.279 11.841,27.444 11.273 C 27.533 10.967,27.511 10.799,27.340 10.488 C 27.106 10.061,26.475 9.894,26.013 10.137 M8.907 11.039 C 8.313 11.114,7.888 11.247,7.280 11.548 C 6.246 12.061,5.498 12.814,5.007 13.840 C 4.647 14.592,4.516 15.166,4.516 16.000 C 4.516 16.866,4.647 17.419,5.039 18.213 C 5.690 19.532,6.823 20.457,8.256 20.839 C 8.689 20.954,8.890 20.977,9.493 20.978 C 9.989 20.979,10.325 20.951,10.573 20.891 C 12.311 20.462,13.670 19.246,14.222 17.628 C 14.588 16.556,14.588 15.444,14.222 14.372 C 13.671 12.757,12.225 11.467,10.579 11.125 C 10.093 11.024,9.335 10.985,8.907 11.039 M23.181 11.062 C 22.249 11.405,22.307 12.702,23.266 12.964 C 24.072 13.185,24.744 12.313,24.368 11.536 C 24.171 11.128,23.610 10.904,23.181 11.062 M10.507 13.184 C 12.575 13.942,13.157 16.555,11.605 18.106 C 10.180 19.532,7.795 19.180,6.867 17.408 C 5.962 15.677,6.896 13.572,8.781 13.094 C 9.242 12.977,10.061 13.020,10.507 13.184 M19.067 13.102 C 18.820 13.233,18.713 13.342,18.607 13.573 C 18.393 14.039,18.542 14.555,18.970 14.830 C 19.200 14.977,19.261 14.992,19.558 14.975 C 19.829 14.959,19.925 14.926,20.086 14.796 C 20.390 14.550,20.490 14.326,20.468 13.940 C 20.446 13.553,20.278 13.289,19.946 13.120 C 19.694 12.991,19.292 12.983,19.067 13.102 M26.968 13.174 C 26.456 13.498,26.356 14.235,26.762 14.684 C 27.077 15.032,27.727 15.087,28.087 14.795 C 28.390 14.550,28.490 14.326,28.468 13.940 C 28.453 13.683,28.418 13.571,28.301 13.419 C 27.975 12.992,27.417 12.889,26.968 13.174 M23.067 14.111 C 22.680 14.312,22.472 14.696,22.520 15.120 C 22.606 15.883,23.523 16.257,24.131 15.779 C 24.430 15.544,24.566 15.009,24.423 14.630 C 24.354 14.446,24.129 14.203,23.936 14.102 C 23.745 14.002,23.266 14.007,23.067 14.111 M18.104 16.100 C 17.519 16.366,17.329 17.070,17.703 17.587 C 18.212 18.290,19.282 18.031,19.489 17.155 C 19.540 16.937,19.391 16.477,19.215 16.308 C 18.899 16.005,18.485 15.928,18.104 16.100 M28.168 16.054 C 27.764 16.226,27.520 16.575,27.520 16.981 C 27.520 17.280,27.593 17.478,27.777 17.671 C 28.061 17.972,28.396 18.062,28.792 17.944 C 29.587 17.708,29.734 16.643,29.037 16.165 C 28.840 16.031,28.365 15.970,28.168 16.054 M23.067 17.102 C 22.820 17.233,22.713 17.342,22.607 17.573 C 22.393 18.039,22.542 18.555,22.970 18.830 C 23.200 18.977,23.261 18.992,23.558 18.975 C 23.830 18.959,23.926 18.926,24.091 18.794 C 24.391 18.554,24.489 18.331,24.467 17.940 C 24.446 17.553,24.278 17.289,23.946 17.120 C 23.694 16.991,23.292 16.983,23.067 17.102 M5.600 23.042 C 4.970 23.116,4.302 23.462,3.916 23.912 C 3.550 24.340,3.445 24.660,2.963 26.811 C 2.712 27.932,2.507 28.922,2.507 29.013 C 2.507 29.424,2.812 29.826,3.214 29.946 C 3.603 30.062,3.885 29.988,4.202 29.688 C 4.418 29.483,4.429 29.447,4.932 27.200 C 5.152 26.217,5.356 25.360,5.384 25.296 C 5.511 25.005,5.436 25.010,9.571 25.026 L 13.384 25.040 13.516 25.173 C 13.629 25.288,13.709 25.582,14.081 27.253 C 14.320 28.324,14.559 29.299,14.612 29.419 C 14.889 30.054,15.757 30.181,16.231 29.656 C 16.443 29.422,16.509 29.181,16.463 28.808 C 16.395 28.252,15.557 24.706,15.430 24.438 C 15.101 23.741,14.277 23.154,13.467 23.041 C 13.028 22.980,6.119 22.980,5.600 23.042 " fill="#1A1C1F" stroke="none" fill-rule="evenodd"></path></svg>
